Newaita/actions/32/tools-timer-symbolic.svg

<svg height="32" viewBox="0 0 32 32" width="32" xmlns="http://www.w3.org/2000/svg"><g fill="#424242"><path d="m15.875 2.894531c-7.328125 0-13.230469 5.902344-13.230469 13.230469 0 7.332031 5.902344 13.230469 13.230469 13.230469 7.332031 0 13.230469-5.898438 13.230469-13.230469 0-7.328125-5.898438-13.230469-13.230469-13.230469zm0 2.648438c5.867188 0 10.585938 4.71875 10.585938 10.582031 0 5.867188-4.71875 10.585938-10.585938 10.585938-5.863281 0-10.582031-4.71875-10.582031-10.585938 0-5.863281 4.71875-10.582031 10.582031-10.582031zm0 0"/><path d="m24.65625 13.09375c-.09375-.355469-.457031-.5625-.8125-.46875l-8.304688 2.226562c-.707031.191407-1.125.914063-.9375 1.621094.191407.707032.914063 1.125 1.621094.933594l8.308594-2.222656c.351562-.097656.5625-.457032.464844-.8125zm0 0"/></g></svg>

<svg xmlns="http://www.w3.org/2000/svg" xmlns:xlink="http://www.w3.org/1999/xlink" width="32px" height="32px" viewBox="0 0 32 32" version="1.1">
<g id="surface1">
     <defs>
  <style id="current-color-scheme" type="text/css">
   .ColorScheme-Text { color:#424242; } .ColorScheme-Highlight { color:#eeeeee; }
  </style>
 </defs>
<path style="fill:currentColor" class="ColorScheme-Text" d="M 15.875 2.894531 C 8.546875 2.894531 2.644531 8.796875 2.644531 16.125 C 2.644531 23.457031 8.546875 29.355469 15.875 29.355469 C 23.207031 29.355469 29.105469 23.457031 29.105469 16.125 C 29.105469 8.796875 23.207031 2.894531 15.875 2.894531 Z M 15.875 5.542969 C 21.742188 5.542969 26.460938 10.261719 26.460938 16.125 C 26.460938 21.992188 21.742188 26.710938 15.875 26.710938 C 10.011719 26.710938 5.292969 21.992188 5.292969 16.125 C 5.292969 10.261719 10.011719 5.542969 15.875 5.542969 Z M 15.875 5.542969 "/>
     <defs>
  <style id="current-color-scheme" type="text/css">
   .ColorScheme-Text { color:#424242; } .ColorScheme-Highlight { color:#eeeeee; }
  </style>
 </defs>
<path style="fill:currentColor" class="ColorScheme-Text" d="M 24.65625 13.09375 C 24.5625 12.738281 24.199219 12.53125 23.84375 12.625 L 15.539062 14.851562 C 14.832031 15.042969 14.414062 15.765625 14.601562 16.472656 C 14.792969 17.179688 15.515625 17.597656 16.222656 17.40625 L 24.53125 15.183594 C 24.882812 15.085938 25.09375 14.726562 24.996094 14.371094 Z M 24.65625 13.09375 "/>
</g>
</svg>
